frontend/public/svg/logos/fb-messenger.svg

<svg width="183" height="157" viewBox="0 0 183 157" fill="none" xmlns="http://www.w3.org/2000/svg">
<g clip-path="url(#clip0)">
<path d="M119.34 1.87049C97.2163 -1.32325 75.6392 0.517937 55.2158 7.34716C37.1915 13.3737 23.2732 23.9477 13.8488 38.7777C5.28557 52.2536 -2.85827 68.7386 1.67243 88.8318C4.24724 100.252 8.03894 112.23 18.2548 122.543L17.2585 127.613C16.3744 132.122 15.4864 136.656 14.5787 141.187C14.3851 142.155 14.1416 143.142 13.9066 144.097C13.3899 145.973 13.0266 147.889 12.8204 149.825C12.6235 152.3 13.3776 154.308 14.9377 155.478C15.8784 156.169 17.0201 156.53 18.1866 156.507C19.1912 156.492 20.1848 156.295 21.1191 155.926C22.0159 155.56 22.8835 155.127 23.7143 154.629C24.2505 154.326 24.8044 154.013 25.3551 153.749C27.5599 152.699 29.7679 151.655 31.9789 150.617C35.5933 148.915 39.3298 147.155 42.9856 145.372C43.8857 144.906 44.8805 144.651 45.894 144.628C46.9075 144.605 47.913 144.813 48.8336 145.237C52.6345 146.7 56.5614 147.811 60.565 148.557C81.923 152.522 103.962 151.024 126.072 144.106C142.989 138.812 156.228 130.996 166.543 120.211C176.628 109.666 181.873 97.6982 182.578 83.6342C183.636 62.4952 176.782 43.5637 161.625 25.7599C150.171 12.3063 135.945 4.26809 119.34 1.87049ZM24.007 114.038C18.9717 108.391 15.5427 101.498 14.0772 94.0746C12.8333 88.1781 12.0022 82.2021 11.5897 76.1894C11.3231 72.4712 11.757 68.736 12.8689 65.1783C20.9616 40.9154 35.6563 25.3115 57.7933 17.4755C70.7239 12.8752 84.3501 10.5389 98.0748 10.5695C105.824 10.5912 113.558 11.259 121.196 12.5661C132.04 14.3881 141.85 19.8338 150.353 28.7528C166.472 45.6594 173.491 64.0158 171.809 84.8695C170.975 95.2219 166.723 104.252 158.814 112.476C151.041 120.557 141.302 126.647 129.042 131.092C106.29 139.342 83.4542 141.2 61.1715 136.606C57.7515 135.822 54.4491 134.594 51.3487 132.951C47.5078 131.015 43.3545 129.839 39.0181 134.299C35.3977 138.022 30.6622 140.06 24.8852 142.188C25.1339 140.394 25.3701 138.669 25.5998 136.994C26.2056 132.583 26.7767 128.417 27.3943 124.317C27.9739 120.474 26.9277 117.304 24.007 114.039V114.038Z" fill="black"/>
<path d="M37.4249 102.413C37.7373 102.418 38.0482 102.369 38.3439 102.267C40.75 101.389 42.929 99.8279 44.8514 98.4502C50.5615 94.3599 56.3439 90.1699 61.9352 86.117C65.7017 83.3873 69.4709 80.6608 73.2429 77.937C74.5274 77.0103 75.8683 76.115 77.4264 75.078C78.0782 74.6442 78.7732 74.1808 79.5267 73.6748C79.6855 73.9268 79.8365 74.1729 79.9822 74.4118C80.4594 75.2474 81.0113 76.0383 81.6316 76.7747L84.3797 79.8411C88.783 84.759 93.3367 89.8443 97.9718 94.7045C102.682 99.6421 104.964 99.7288 110.18 95.1712C114.813 91.1222 119.363 87.1862 124.094 83.5454C127.84 80.6576 131.723 77.8156 135.477 75.0636C138.845 72.5951 142.326 70.0433 145.705 67.4665C147.781 66.0002 149.53 64.1211 150.846 61.9464C151.692 60.4171 151.32 57.7386 150.42 56.3675C149.608 55.1283 146.819 54.8113 145.428 55.2616C143.035 56.0771 140.789 57.2684 138.772 58.7906C130.105 65.1315 121.622 71.434 112.64 78.107C109.8 80.2165 106.934 82.3444 104.042 84.4912C103.83 84.3009 103.619 84.1152 103.411 83.9314C102.705 83.3105 102.04 82.7237 101.442 82.0864C99.5686 80.082 97.7046 78.0696 95.8505 76.0481C93.1917 73.1602 90.4429 70.1785 87.6948 67.2827C83.1904 62.5363 79.8431 62.1282 74.4224 65.6668C73.5914 66.2089 72.7933 66.8016 72.1908 67.2578C60.5554 76.0671 48.9248 84.8824 37.2989 93.7029C37.0836 93.867 36.8592 94.0311 36.634 94.1906C35.651 94.799 34.8023 95.6017 34.1399 96.5488C33.6267 97.4119 32.7419 99.9756 33.7061 100.903C34.7339 101.821 36.048 102.355 37.4249 102.413Z" fill="black"/>
</g>
<defs>
<clipPath id="clip0">
<rect width="182.462" height="156.865" fill="white" transform="translate(0.342163 0.0244141)"/>
</clipPath>
</defs>
</svg>

<svg xmlns="http://www.w3.org/2000/svg" width="183" height="157" fill="none" viewBox="0 0 183 157"><g fill="#000" clip-path="url(#a)"><path d="M119.34 1.87C97.216-1.323 75.64.518 55.216 7.347c-18.025 6.027-31.943 16.6-41.367 31.43C5.286 52.255-2.858 68.74 1.672 88.833c2.575 11.42 6.367 23.398 16.583 33.711l-.996 5.07c-.885 4.509-1.773 9.043-2.68 13.574-.194.968-.437 1.955-.672 2.91a36 36 0 0 0-1.087 5.728c-.197 2.475.558 4.483 2.118 5.653a5.3 5.3 0 0 0 3.249 1.029 8.3 8.3 0 0 0 2.932-.581 19 19 0 0 0 2.595-1.297 28 28 0 0 1 1.641-.88q3.307-1.575 6.624-3.132c3.614-1.702 7.35-3.462 11.007-5.245a6.66 6.66 0 0 1 5.848-.135 66.6 66.6 0 0 0 11.731 3.32c21.358 3.965 43.397 2.467 65.507-4.451 16.917-5.294 30.156-13.11 40.471-23.895 10.085-10.545 15.33-22.513 16.035-36.577 1.058-21.139-5.796-40.07-20.953-57.874-11.454-13.454-25.68-21.492-42.285-23.89M24.007 114.038a42.3 42.3 0 0 1-9.93-19.963 130 130 0 0 1-2.487-17.886 29.8 29.8 0 0 1 1.279-11.01c8.093-24.264 22.787-39.868 44.924-47.704a119.4 119.4 0 0 1 40.282-6.906c7.749.022 15.483.69 23.121 1.997 10.844 1.822 20.654 7.268 29.157 16.187 16.119 16.906 23.138 35.263 21.456 56.117-.834 10.352-5.086 19.382-12.995 27.606-7.773 8.081-17.512 14.171-29.772 18.616-22.752 8.25-45.588 10.108-67.87 5.514a40 40 0 0 1-9.823-3.655c-3.841-1.936-7.994-3.112-12.33 1.348-3.621 3.723-8.357 5.761-14.134 7.889.249-1.794.485-3.519.715-5.194.606-4.411 1.177-8.577 1.794-12.677.58-3.843-.466-7.013-3.387-10.278z"/><path d="M37.425 102.413c.312.005.623-.044.919-.146 2.406-.878 4.585-2.44 6.507-3.817 5.71-4.09 11.493-8.28 17.084-12.333q5.65-4.095 11.308-8.18c1.284-.927 2.625-1.822 4.183-2.859a565 565 0 0 0 2.1-1.403q.238.378.456.737a16 16 0 0 0 1.65 2.363l2.748 3.066c4.403 4.918 8.957 10.003 13.592 14.864 4.71 4.937 6.992 5.024 12.208.466 4.633-4.049 9.183-7.985 13.914-11.626 3.746-2.887 7.629-5.73 11.383-8.481 3.368-2.469 6.849-5.02 10.228-7.597a18.45 18.45 0 0 0 5.141-5.52c.846-1.53.474-4.208-.426-5.58-.812-1.239-3.601-1.556-4.992-1.105a23.8 23.8 0 0 0-6.656 3.529c-8.667 6.34-17.15 12.643-26.132 19.316l-8.598 6.384-.631-.56c-.706-.62-1.371-1.207-1.969-1.845a876 876 0 0 1-5.591-6.038c-2.66-2.888-5.408-5.87-8.156-8.765-4.505-4.747-7.852-5.155-13.273-1.616a40 40 0 0 0-2.231 1.59 43571 43571 0 0 0-34.892 26.446c-.215.164-.44.328-.665.488a8.5 8.5 0 0 0-2.494 2.358c-.513.863-1.398 3.427-.434 4.354a5.96 5.96 0 0 0 3.719 1.51"/></g><defs><clipPath id="a"><path fill="#fff" d="M.342.024h182.462V156.89H.342z"/></clipPath></defs></svg>
